svg/fluentui-system-icons/ic_fluent_people_search_20_filled.svg

<svg width="20" height="20" viewBox="0 0 20 20" fill="none" xmlns="http://www.w3.org/2000/svg">
<path d="M10 2C7.79086 2 6 3.79086 6 6C6 8.20914 7.79086 10 10 10C12.2091 10 14 8.20914 14 6C14 3.79086 12.2091 2 10 2ZM14.865 16.7966C13.7938 17.4796 12.4109 17.8614 10.9031 17.9685C10.8301 17.7756 10.716 17.5947 10.5607 17.4393L8.56144 15.4401C8.84257 14.8527 9 14.1947 9 13.5C9 12.5749 8.72086 11.7151 8.24223 11L15 11C16.1045 11 17 11.8956 17 13C17 14.6912 16.1672 15.9663 14.865 16.7966ZM4.5 17C5.2862 17 6.01185 16.7408 6.59615 16.3031L9.14644 18.8535C9.3417 19.0488 9.65828 19.0488 9.85355 18.8535C10.0488 18.6583 10.0488 18.3417 9.85356 18.1464L7.30324 15.596C7.74082 15.0117 8 14.2861 8 13.5C8 11.567 6.433 10 4.5 10C2.567 10 1 11.567 1 13.5C1 15.433 2.567 17 4.5 17ZM4.5 16C3.11929 16 2 14.8807 2 13.5C2 12.1193 3.11929 11 4.5 11C5.88071 11 7 12.1193 7 13.5C7 14.8807 5.88071 16 4.5 16Z" fill="#212121"/>
</svg>

<svg xmlns="http://www.w3.org/2000/svg" width="20" height="20"><path d="M10 2a4 4 0 1 0 0 8 4 4 0 0 0 0-8Zm4.865 14.797c-1.071.683-2.454 1.064-3.962 1.171a1.497 1.497 0 0 0-.342-.529l-2-1.999A4.482 4.482 0 0 0 9 13.5a4.48 4.48 0 0 0-.758-2.5H15a2 2 0 0 1 2 2c0 1.691-.833 2.966-2.135 3.797ZM4.5 17c.786 0 1.512-.26 2.096-.697l2.55 2.55a.5.5 0 1 0 .708-.707l-2.55-2.55A3.5 3.5 0 1 0 4.5 17Zm0-1a2.5 2.5 0 1 1 0-5 2.5 2.5 0 0 1 0 5Z"/></svg>
